shader_type canvas_item;

void vertex() {
	VERTEX.y =  -VERTEX.y + sin(TIME + UV.x ) * 0.2 * UV.y;
}

void fragment() {
	// Called for every pixel the material is visible on.
}

//void light() {
	// Called for every pixel for every light affecting the CanvasItem.
	// Uncomment to replace the default light processing function with this one.
//}
